X:1
T:The Gravel Path
M:C
L:1/8
Q:80
C:
S:Reel
K:HP
|: {gAGAG}A2{g}eA{g}B{d}A{g}eA | \
{gAGAG}A2{g}eA{g}BA{g}GB | \
{gAGAG}A2{g}eA{g}Bd{g}ef |
ge{g}dc{g}BA{g}GB :| \
{gAGAG}A2aAgA{g}fA | \
{gAGAG}A2{g}eA{g}BA{g}GB |
{gAGAG}A2aAgA{g}ef | \
ge{g}dc{g}BA{g}GB | \
{gAGAG}A2aAgA{g}fA |
{gAGAG}A2{g}eA{g}BA{g}GB | \
{g}AB{GdG}cd{g}ef{a}ga | \
ge{g}dc{gBd}B4|]
